X:1
T:Winter Cold, CMD
T:Winter Cold, CMD
T:Joseph Barnby, 1871
T:Public Domain Courtesy of the Cyber Hymnal™
C:Joseph Barnby, 1871
Z:Public Domain
Z:Courtesy of the Cyber Hymnal™
%%score ( 1 2 ) ( 3 4 )
L:1/8
Q:1/4=115
M:4/4
K:D
V:1 treble 
V:2 treble 
V:3 bass 
V:4 bass 
V:1
 [A,D]2 DD [DE]2 [DF]2 | [DF]3 [DE] [DE]2 [DF]2 | [DG]2 [DA]2 [DB]2 [Cc]2 | A6 [EA]2 | %4
 [Dd]3 [Ec] [FB]2 [DF]2 | [FA]3 [EG] [EG]2 [CF]2 | [B,D]3 D [DF]2 [DE]2 | [CE]6 E2 | %8
 [DG]3 [DF] [DE]2 [CE]2 | [DA]3 [CG] [DF]2 [EF]2 | [^DB]3 [DA] [DG]2 [DF]2 | [EG]4 [FA]4 | %12
 [GB]3 [DB] [Ec]2 [Ec]2 | [Dc]2 [F^d]2 [Ee]2 [EB]2 | [Ec]2 [DB]2 G3 z E | D8 |] %16
V:2
 x2 DD x4 | x8 | x8 | (C4 D2) x2 | x8 | x8 | x3 D x4 | x6 E2 | x8 | x8 | x8 | x8 | x8 | x8 | %14
 x4 B,2 E2 x | D8 |] %16
V:3
 [D,F,]2 [D,F,][D,F,] [D,A,]2 [D,A,]2 | [G,,B,]3 [G,,B,] [G,B,]2 [F,A,]2 | %2
 [E,B,]2 [E,A,]2 [E,G,]2 [A,,G,]2 | (G,4 F,2) [C,A,]2 | [B,,F,]3 [C,F,] [D,F,]2 [B,,B,]2 | %5
 [E,B,]3 [E,B,] [E,B,]2 [F,^A,]2 | F,2 z [E,A,]2 [E,^G,]2 x | [A,,A,]6 [A,C]2 | %8
 [A,,B,]3 [A,,A,] [A,,G,]2 [G,A,]2 | [F,A,]3 [E,A,] [D,A,]2 [=C,A,]2 | A,2 z [B,,B,]2 [B,,A,]2 x | %11
 [E,G,]4 [D,=C]4 | [G,B,]3 [G,B,] [F,B,]2 [F,^A,]2 | B,2 [A,=C]2 [G,B,]2 [E,G,]2 | %14
 [A,,G,]2 [A,,E,]2 [A,,E,]2 [A,,G,]2 x | [D,F,]8 |] %16
V:4
 x8 | x8 | x8 | D,6 x2 | x8 | x8 | B,,3 (B,2 B,,) x2 | x8 | x8 | x8 | B,,3 (F,2 B,,) x2 | x8 | x8 | %13
 B,2 x6 | x9 | x8 |] %16

